Newaita/actions/16/object-order-lower.svg

<svg height="16" viewBox="0 0 16 16" width="16" xmlns="http://www.w3.org/2000/svg"><g fill="#424242"><path d="m7.609375 13.023438h6.613281c.183594 0 .332032.148437.332032.332031v.660156c0 .183594-.148438.332031-.332032.332031h-6.613281c-.183594 0-.332031-.148437-.332031-.332031v-.660156c0-.183594.148437-.332031.332031-.332031zm0 0"/><path d="m7.609375 2.109375h6.613281c.183594 0 .332032.148437.332032.332031v.660156c0 .183594-.148438.332032-.332032.332032h-6.613281c-.183594 0-.332031-.148438-.332031-.332032v-.660156c0-.183594.148437-.332031.332031-.332031zm0 0"/><path d="m7.609375 5.746094h6.613281c.183594 0 .332032.148437.332032.332031v.660156c0 .183594-.148438.332031-.332032.332031h-6.613281c-.183594 0-.332031-.148437-.332031-.332031v-.660156c0-.183594.148437-.332031.332031-.332031zm0 0"/><path d="m1.652344 9.386719h12.570312c.183594 0 .332032.148437.332032.332031v.660156c0 .183594-.148438.332032-.332032.332032h-12.570312c-.179688 0-.328125-.148438-.328125-.332032v-.660156c0-.183594.148437-.332031.328125-.332031zm0 0"/><path d="m2.976562 5.746094h1.324219v-3.296875c0-.183594-.148437-.332031-.332031-.332031h-.660156c-.183594 0-.332032.148437-.332032.332031zm0 0"/><path d="m5.953125 4.425781h-4.628906l2.3125 3.308594zm0 0"/></g></svg>

<?xml version="1.0" encoding="UTF-8"?>
<svg xmlns="http://www.w3.org/2000/svg" xmlns:xlink="http://www.w3.org/1999/xlink" width="16px" height="16px" viewBox="0 0 16 16" version="1.1">
<g id="surface1">
<path style=" stroke:none;fill-rule:nonzero;fill:rgb(25.882354%,25.882354%,25.882354%);fill-opacity:1;" d="M 7.609375 13.023438 L 14.222656 13.023438 C 14.40625 13.023438 14.554688 13.171875 14.554688 13.355469 L 14.554688 14.015625 C 14.554688 14.199219 14.40625 14.347656 14.222656 14.347656 L 7.609375 14.347656 C 7.425781 14.347656 7.277344 14.199219 7.277344 14.015625 L 7.277344 13.355469 C 7.277344 13.171875 7.425781 13.023438 7.609375 13.023438 Z M 7.609375 13.023438 "/>
<path style=" stroke:none;fill-rule:nonzero;fill:rgb(25.882354%,25.882354%,25.882354%);fill-opacity:1;" d="M 7.609375 2.109375 L 14.222656 2.109375 C 14.40625 2.109375 14.554688 2.257812 14.554688 2.441406 L 14.554688 3.101562 C 14.554688 3.285156 14.40625 3.433594 14.222656 3.433594 L 7.609375 3.433594 C 7.425781 3.433594 7.277344 3.285156 7.277344 3.101562 L 7.277344 2.441406 C 7.277344 2.257812 7.425781 2.109375 7.609375 2.109375 Z M 7.609375 2.109375 "/>
<path style=" stroke:none;fill-rule:nonzero;fill:rgb(25.882354%,25.882354%,25.882354%);fill-opacity:1;" d="M 7.609375 5.746094 L 14.222656 5.746094 C 14.40625 5.746094 14.554688 5.894531 14.554688 6.078125 L 14.554688 6.738281 C 14.554688 6.921875 14.40625 7.070312 14.222656 7.070312 L 7.609375 7.070312 C 7.425781 7.070312 7.277344 6.921875 7.277344 6.738281 L 7.277344 6.078125 C 7.277344 5.894531 7.425781 5.746094 7.609375 5.746094 Z M 7.609375 5.746094 "/>
<path style=" stroke:none;fill-rule:nonzero;fill:rgb(25.882354%,25.882354%,25.882354%);fill-opacity:1;" d="M 1.652344 9.386719 L 14.222656 9.386719 C 14.40625 9.386719 14.554688 9.535156 14.554688 9.71875 L 14.554688 10.378906 C 14.554688 10.5625 14.40625 10.710938 14.222656 10.710938 L 1.652344 10.710938 C 1.472656 10.710938 1.324219 10.5625 1.324219 10.378906 L 1.324219 9.71875 C 1.324219 9.535156 1.472656 9.386719 1.652344 9.386719 Z M 1.652344 9.386719 "/>
<path style=" stroke:none;fill-rule:nonzero;fill:rgb(25.882354%,25.882354%,25.882354%);fill-opacity:1;" d="M 2.976562 5.746094 L 4.300781 5.746094 L 4.300781 2.449219 C 4.300781 2.265625 4.152344 2.117188 3.96875 2.117188 L 3.308594 2.117188 C 3.125 2.117188 2.976562 2.265625 2.976562 2.449219 Z M 2.976562 5.746094 "/>
<path style=" stroke:none;fill-rule:nonzero;fill:rgb(25.882354%,25.882354%,25.882354%);fill-opacity:1;" d="M 5.953125 4.425781 L 1.324219 4.425781 L 3.636719 7.734375 Z M 5.953125 4.425781 "/>
</g>
</svg>
